X:6021
T:Fred Pidgeon's No. 1
T:Fred Pigeon's No 1
R:Polka
C:Trad.
O:England, Devon
Z:Paul Hardy's Session Tunebook 2015 (see www.paulhardy.net). Creative Commons cc by-nc-sa licenced.
M:4/4
L:1/8
Q:1/4=150
K:G
D2|"G"G2G2 "D"FGAF|"G"G2G2 "D"FGAF|"G"G2B2 "C"cBAG|"D"F2A2 D2D2|"G"G2G2 "D"FGAF|"G"G2G2 "D"FGAF|"G"G2B2 "C"cBAG|"D"D2 "G"G2G2:|
|:Bc|"G"d4 d4|"D"dcBA "G"G2G2|"D"A3B cBcd|"Am"e2A2 A2 Bc|"G"d4 d4|"D"dcBA "G"G2G2|"D"A2A2 D2EF|"G"G4 G2:|

